hero/outline/currency-rupee.svg

<svg width="24" height="24" viewBox="0 0 24 24" fill="none" xmlns="http://www.w3.org/2000/svg">
<path d="M15 8.25L9 8.25M15 11.25H9M12 17.25L9 14.25H10.5C12.1569 14.25 13.5 12.9069 13.5 11.25C13.5 9.59315 12.1569 8.25 10.5 8.25M21 12C21 16.9706 16.9706 21 12 21C7.02944 21 3 16.9706 3 12C3 7.02944 7.02944 3 12 3C16.9706 3 21 7.02944 21 12Z" stroke="#0F172A" stroke-width="1.5" stroke-linecap="round" stroke-linejoin="round"/>
</svg>

<svg viewBox="0 0 24 24" xmlns="http://www.w3.org/2000/svg"><path fill="none" stroke="#000" stroke-linecap="round" stroke-linejoin="round" stroke-width="1.5" d="M15 8.25H9m6 3H9m3 6l-3-3h1.5v0c1.65 0 3-1.35 3-3 0-1.66-1.35-3-3-3M21 12v0c0 4.97-4.03 9-9 9 -4.98 0-9-4.03-9-9v0c0-4.98 4.02-9 9-9 4.97 0 9 4.02 9 9Z"/></svg>
